X:1
L:1/4
Q:1/4=200
M:6/8
V:1
V:2 clef=bass
K:F
[V:1] A/ z2 z/ | [dgb]/ z3/2 [Bg]/[Bd]/ | B/ z2 z/ | [^CE]/[^CE]3/4 z/4 [G,D]- [G,D]/4 z/4 |
[V:2] [A,,,A,,]3/4 z/4 [A,,,A,,]/ [A,,,A,,]3/4 z/4 [A,,,A,,]/ | [G,,,G,,]3/4 z/4 [G,,,G,,]/ [G,,,G,,]3/4 z/4 [G,,,G,,]/ | [G,,,G,,]3/4 z/4 [G,,,G,,]/ [G,,,G,,]3/4 z/4 [G,,,G,,]/ | [A,,,A,,]3/4 z/4 [A,,,A,,]/ [A,,,A,,]3/4 z/4 [A,,,A,,]/ |